X:858
T:Rig-a-jig-jig
M:6/8
R:Jig
L:1/8
S:Colin Hume's website,  colinhume.com  - chords can also be printed below the stave.
Q:3/8=120
K:G
P:A
"G"DED DEG | "G"B2G "D"A2B | "Am"c2A "D7"F2A | "G"d2B GFE |\
"G"DED DEG | "G"B2G "Am"A2c | "G"B2d "D7"cBA | "G"G3 G3 :|
P:B
|: "G"B2B d2d | "Em"e2d B3 | "Am"ABA E2F | "D7"A2F E2D |\
"G"B2B d2d | "Em"e2d B3 | "Am"ABA "D7"E2F | "G"G3 G3 :|

